svg/快进15秒.svg

<svg width="24" height="24" viewBox="0 0 24 24" fill="none" xmlns="http://www.w3.org/2000/svg"><path d="M10.0988 16.4358V10.0994L8.83154 11.2875" stroke="black" stroke-width="0.950468" stroke-linecap="round" stroke-linejoin="round"/><path d="M12.6333 16.0399C12.9642 16.2885 13.3756 16.4358 13.8214 16.4358C14.915 16.4358 15.8015 15.5493 15.8015 14.4557C15.8015 13.3621 14.915 12.4755 13.8214 12.4755C13.3756 12.4755 12.9642 12.6228 12.6333 12.8714L13.0293 10.0994H15.8015" stroke="black" stroke-width="0.950468" stroke-linecap="round" stroke-linejoin="round"/><path d="M18.0499 6.56371C21.6331 9.88309 21.8291 15.4596 18.4878 19.0192C15.1465 22.5788 9.53307 22.7735 5.94993 19.4541C2.3668 16.1348 2.17077 10.5583 5.5121 6.99867C7.41265 4.97397 10.0483 4.03791 12.6273 4.21798M11.3663 2.17871L13.6257 4.31899L11.3663 6.61423" stroke="black" stroke-width="1.58411" stroke-linecap="round" stroke-linejoin="round"/></svg>

<svg fill="none" viewBox="0 0 24 24"><path stroke="black" stroke-linecap="round" stroke-linejoin="round" stroke-width=".95" d="M10.099 16.436v-6.337l-1.267 1.188"/><path stroke="black" stroke-linecap="round" stroke-linejoin="round" stroke-width=".95" d="M12.633 16.04a1.98 1.98 0 1 0 0-3.168l.396-2.773h2.773"/><path stroke="black" stroke-linecap="round" stroke-linejoin="round" stroke-width="1.584" d="M18.05 6.564a8.77 8.77 0 0 1 .438 12.455c-3.341 3.56-8.955 3.755-12.538.435A8.77 8.77 0 0 1 5.512 7a8.89 8.89 0 0 1 7.115-2.781m-1.26-2.04 2.259 2.141-2.26 2.295"/></svg>
